icons/line/bookmark.svg

<svg width="24" height="24" viewBox="0 0 24 24" fill="none" xmlns="http://www.w3.org/2000/svg">
<path d="M17 3H7C5.89543 3 5 3.89543 5 5V20.1384C5 20.5223 5.41474 20.763 5.74807 20.5725L11.0077 17.567C11.6226 17.2157 12.3774 17.2157 12.9923 17.567L18.2519 20.5725C18.5853 20.763 19 20.5223 19 20.1384V5C19 3.89543 18.1046 3 17 3Z" stroke="currentColor" stroke-width="2" stroke-linecap="round" stroke-linejoin="round"/>
</svg>

<svg width="24" height="24" fill="none" xmlns="http://www.w3.org/2000/svg"><path d="M17 3H7a2 2 0 00-2 2v15.138a.5.5 0 00.748.434l5.26-3.005a2 2 0 011.984 0l5.26 3.006a.5.5 0 00.748-.435V5a2 2 0 00-2-2z" stroke="currentColor" stroke-width="2" stroke-linecap="round" stroke-linejoin="round"/></svg>
